X:646
T:The Little Harvest Rose
C:O'Carolan
B:O'Neill's 646
Z: 1997 by John Chambers <jc@trillian.mit.edu>
N:"Moderate"
M:C
L:1/8
K:F
FG \
|A2BA G2AG|F2ff f2c/d/f|g/a/b ag fgfe dedc|c2~d2 cdc2FG|
|AcBA GBAG|F2ff f2c/d/f|gbag fedc|c2B2 c2||
fe \
|eddc cAGF|FA/c/ ff f2g/f/d|cBAG BAGF|DFFG F2fe|
|eddc cAGF|Acf2 f2g/f/e/d/|c2AG BAGF|DFFG HF2|]
